packages/tokens/icons/speechBubble/size32Px.svg

<svg viewBox="0 0 32 32" fill="none" xmlns="http://www.w3.org/2000/svg" width="1em" height="1em"><path d="M12.5 18.5L12.5 25.5C12.5 26.6046 13.3954 27.5 14.5 27.5H24.882C25.2607 27.5 25.607 27.714 25.7764 28.0528L26.1584 28.8167C26.3677 29.2355 26.7957 29.5 27.2639 29.5C27.9466 29.5 28.5 28.9466 28.5 28.2639V18.5C28.5 17.3954 27.6046 16.5 26.5 16.5L14.5 16.5C13.3954 16.5 12.5 17.3954 12.5 18.5Z" stroke="currentColor"/><path d="M23.5 13.5V4.5C23.5 3.39543 22.6046 2.5 21.5 2.5L5.5 2.5C4.39543 2.5 3.5 3.39543 3.5 4.5L3.5 17.1972C3.5 17.9167 4.08327 18.5 4.80278 18.5V18.5C5.23836 18.5 5.64513 18.2823 5.88675 17.9199L7.20313 15.9453C7.3886 15.6671 7.70083 15.5 8.03518 15.5H10.5" stroke="currentColor" stroke-linecap="round"/></svg>

<svg xmlns="http://www.w3.org/2000/svg" fill="none" viewBox="0 0 32 32" width="1em" height="1em"><path stroke="currentColor" d="M12.5 18.5v7a2 2 0 0 0 2 2h10.382a1 1 0 0 1 .894.553l.382.764a1.236 1.236 0 0 0 2.342-.553V18.5a2 2 0 0 0-2-2h-12a2 2 0 0 0-2 2Z"/><path stroke="currentColor" stroke-linecap="round" d="M23.5 13.5v-9a2 2 0 0 0-2-2h-16a2 2 0 0 0-2 2v12.697c0 .72.583 1.303 1.303 1.303v0c.435 0 .842-.218 1.084-.58l1.316-1.975a1 1 0 0 1 .832-.445H10.5"/></svg>
